X: 4
T: The Mill House
R: reel
M: 4/4
L: 1/8
K: Gmaj
GA|:B2AG ED~D2|GABD EDGE|DEGA BedB|BAAG Aded|B2AG ED ~D2|~G3D EDGE|DEGA BedB|1AGAB G3A:|2 AGAB G3B||dGBd fgfg|~e2 ge dBGE|DEGA BedB|BAAG ~A2BA|[1G2Bd fgfg|ecge dBGE|DEGA BedB|AGAB ~G3B:|[2B2AG ED~D2|GABD EDGE|DEGA BedB|AGAB G3A||


Tune 4484	Setting 17088

